X: 18054
T: Humours Of Bahrain, The
R: polka
M: 2/4
K: Gmajor
|:de/d/ Bd|gd B>d|cA A/B/c/d/|ed d>B|
de/d/ Bd|gd B>d|cB/c/ dF|AG G>B:|
|:dg g/f/g/a/|bg g>f|ec a>g|f/e/f/g/ ad|
dg g/f/g/a/|bg d>B|cD FA|AG G>B:|

